www/assets/images/test_icons/flags/CW.svg

<svg fill="none" height="15" viewBox="0 0 21 15" width="21" xmlns="http://www.w3.org/2000/svg" xmlns:xlink="http://www.w3.org/1999/xlink"><mask id="a" height="15" maskUnits="userSpaceOnUse" width="21" x="0" y="0"><path d="m19 0h-17c-1.10457 0-2 .89543-2 2v11c0 1.1046.89543 2 2 2h17c1.1046 0 2-.8954 2-2v-11c0-1.10457-.8954-2-2-2z" fill="#fff"/></mask><g mask="url(#a)"><path d="m19 0h-17c-1.10457 0-2 .89543-2 2v11c0 1.1046.89543 2 2 2h17c1.1046 0 2-.8954 2-2v-11c0-1.10457-.8954-2-2-2z" fill="#002b7f"/><path clip-rule="evenodd" d="m5 5h-.50461c-.27964 0-.49539.22386-.49539.5 0 .26807.22179.5.49539.5h.50461v.50461c0 .27964.22386.49539.5.49539.26807 0 .5-.22179.5-.49539v-.50461h.50461c.27964 0 .49539-.22386.49539-.5 0-.26807-.22179-.5-.49539-.5h-.50461v-.50461c0-.27964-.22386-.49539-.5-.49539-.26807 0-.5.22179-.5.49539zm-2-2h1v1h-1z" fill="#fff" fill-rule="evenodd"/><path d="m21 9h-21v2h21z" fill="#f9e814"/><path d="m19 .5h-17c-.82843 0-1.5.67157-1.5 1.5v11c0 .8284.67157 1.5 1.5 1.5h17c.8284 0 1.5-.6716 1.5-1.5v-11c0-.82843-.6716-1.5-1.5-1.5z" stroke="#000" stroke-opacity=".1"/></g></svg>

<svg width="21" height="15" viewBox="0 0 21 15" fill="none" xmlns="http://www.w3.org/2000/svg">
<mask id="mask0_3_170" style="mask-type:alpha" maskUnits="userSpaceOnUse" x="0" y="0" width="21" height="15">
<path d="M19 0H2C0.89543 0 0 0.89543 0 2V13C0 14.1046 0.89543 15 2 15H19C20.1046 15 21 14.1046 21 13V2C21 0.89543 20.1046 0 19 0Z" fill="white"/>
</mask>
<g mask="url(#mask0_3_170)">
<path d="M19 0H2C0.89543 0 0 0.89543 0 2V13C0 14.1046 0.89543 15 2 15H19C20.1046 15 21 14.1046 21 13V2C21 0.89543 20.1046 0 19 0Z" fill="#002B7F"/>
<path fill-rule="evenodd" clip-rule="evenodd" d="M5 5H4.49539C4.21575 5 4 5.22386 4 5.5C4 5.76807 4.22179 6 4.49539 6H5V6.50461C5 6.78425 5.22386 7 5.5 7C5.76807 7 6 6.77821 6 6.50461V6H6.50461C6.78425 6 7 5.77614 7 5.5C7 5.23193 6.77821 5 6.50461 5H6V4.49539C6 4.21575 5.77614 4 5.5 4C5.23193 4 5 4.22179 5 4.49539V5ZM3 3H4V4H3V3Z" fill="white"/>
<path d="M21 9H0V11H21V9Z" fill="#F9E814"/>
<path d="M19 0.5H2C1.17157 0.5 0.5 1.17157 0.5 2V13C0.5 13.8284 1.17157 14.5 2 14.5H19C19.8284 14.5 20.5 13.8284 20.5 13V2C20.5 1.17157 19.8284 0.5 19 0.5Z" stroke="black" stroke-opacity="0.1"/>
</g>
</svg>
